!!!!SEGMENT: pl-cz--ii-87--005-001_hanel--missae-kirie-kirie.krn
!!!cenid: 18xx:1198
!!!COM: Hanel
!!!COM-rismid: pe30017835
!!!CDT: ~1800-~1899
!!!CNT:
!!!OPR: Missae Kirie
!!!OTL: Kirie
!!!OMV: 001
!!!PDT: 1888
!!!AGN: Sacred; Mass
!!!SMS-siglum: PL-CZ
!!!SMS-shelfmark: II-87
!!!SMS-shelfwork: 005-001 M
!!!SMS-variant:
!!!SMS-altvar:
!!!NIFC-rismid: 300033228
!!!URL-scan: http://repozytorium.nifc.pl/skany/pl-cz-nut--ii-87
!!!ONB-nifc: UWAGA: części Mszy: Kirie, Gloria, Credo, Sanctus, Benedictus, Agnus
!!!OMD: Moderato.
!!!key: G
**kern	**kern	**text	**dynam
*part2	*part1	*part1	*part1
*staff2	*staff1	*staff1	*
*I"Organo	*I"Voce	*	*
*Iorgan	*Ivox	*	*
*ICklav	*ICvox	*	*
*clefF4	*clefG2	*	*
*k[f#]	*k[f#]	*	*
*G:	*G:	*	*
*M4/4	*M4/4	*	*
*met(c)	*met(c)	*	*
=1	=1	=1	=1
!	!	!	!LO:DY:b:rj
4G\ 4B\ 4d\	8r	.	p
.	(>8b\L	E-	.
4r	8a#X\	.	.
.	8b\J	.	.
2r	8cc\L	.	.
.	8b\	.	.
!	!LO:SIC:v:s=8an\	!	!
.	8a#\	.	.
.	8g\J)	.	.
=2	=2	=2	=2
*	*^	*	*
[<2D\ [>2A\	(>2g/	[<2c\	-lej-	.
4D\] 4A\]	4f#/)	4c\]	-son	.
4r	4r	4ryy	.	.
*	*v	*v	*	*
=3	=3	=3	=3
4D\ 4F#\ 4A\	8r	.	.
.	(>8cc\L	E-	.
4r	8b\	.	.
.	8cc\J	.	.
2r	8dd\L	.	.
.	8cc\	.	.
.	8b\	.	.
.	8a\J)	.	.
=4	=4	=4	=4
*^	*^	*	*
(>2c/	[<2G\	(>2a/	[<2d\	-lej-	.
4B/)	4G\]	4g/)	4d\]	-son	.
4r	4ryy	4r	4ryy	.	.
*v	*v	*	*	*	*
=5	=5	=5	=5	=5
2BB\ 2B\	2dd/	2g\	Chris-	.
!	!	!	!	!LO:HP:a
2B\ 2f#\	2dd#X/	2a\	-te	<[
!!LO:LB:g=original
=6	=6	=6	=6	=6
(>(<4.c\ 4.e\	(>4.g\ 4.ee\	2ryy	e-	.
8G#X\)) 8d\	8fn/) 8b/	.	.	.
4A\ 4c\	(<8dd/L	4e\	-lej-	.
.	8cc/)	.	.	.
4C\ 4c\	(<8b/	4e-X\	-son	.
.	8a/J)	.	.	.
=7	=7	=7	=7	=7
*^	*	*	*	*
2B/	1D\	4g/	2d\	e-	.
.	.	(<16qqa/LL	.	.	.
.	.	16qqg/JJ)	.	.	.
.	.	8f#/L	.	.	.
.	.	8g/J	.	.	.
2c/	.	4.b/	2f#\	-lej-	.
.	.	8a/	.	.	.
*v	*v	*	*	*	*
*	*v	*v	*	*
=8	=8	=8	=8
4G\ 4B\	8g/L	-son	.
.	8d/	.	.
4r	8e/	.	.
.	8d/J	.	.
2r	8c#X/L	.	.
.	8d/	.	.
.	8g/	.	.
.	8b/J	.	.
=9	=9	=9	=9
*	*^	*	*
1D\ 1A\	(>2cc/	8f#\L	e-	.
.	.	8d\	.	.
.	.	8f#\	.	.
.	.	8d\J	.	.
.	(<4dd/	8f#\L	-lej-	.
.	.	8d\	.	.
.	4cc/))	8f#\	.	.
.	.	8d\J	.	.
*	*v	*v	*	*
=10	=10	=10	=10
4G\	(<8g/L 8b/	-son	.
.	8d/	.	.
4r	8e/	.	.
.	8d/J	.	.
2r	8c#X/L	.	.
.	8d/	.	.
.	8g/	.	.
.	8b/J)	.	.
!!LO:LB:g=original
=11	=11	=11	=11
*	*^	*	*
1D\ 1F#\	(>2a/	8c\L	e-	.
.	.	8d\	.	.
.	.	8c\	.	.
.	.	8d\J	.	.
.	(>4b/	8c\L	-lej-	.
.	.	8d\	.	.
.	4a/)	8c\	.	.
.	.	8d\J	.	.
=12	=12	=12	=12	=12
*^	*	*	*	*
(>4G/	1GG\	4ryy	4B/ 4g/)	son.	.
4D/	.	2b/	(>4d\	.	.
4E/	.	.	4c#X\	.	.
4F#/)	.	4a/	4cn\)	.	.
=13	=13	=13	=13	=13	=13
4G/	2GG\	4ryy	4B/ 4g/	.	.
4D/	.	2b/	4d\	.	.
4E/	2ryy	.	4c#X\	.	.
4F#/	.	4a/	4cn\	.	.
*v	*v	*	*	*	*
*	*v	*v	*	*
=14	=14	=14	=14
4GG/ 4G/	4B/ 4g/	.	.
4r	4r	.	.
4D/	4B/ 4d/ 4g/	.	.
4BB/	4B/ 4d/ 4g/	.	.
=15	=15	=15	=15
1GG/	1B/; 1d/ 1g/	.	.
!!LO:LB:g=original
==	==	==	==
*-	*-	*-	*-
!!!system-decoration: [(s1,s2)]
!!!RDF**kern: < = below
!!!RDF**kern: > = above
!!!AIN: 1 organ 1 vox
!!!ENC: Tomasz Grochalski
!!!END: 2020-11-08
!!!ENC: Marta Chmielewska
!!!END: 2021-11-15
